www/assets/icons/nightlight_round.svg

<svg width="24" height="24" viewBox="0 0 24 24" xmlns="http://www.w3.org/2000/svg" fill='currentColor'><path d="M12.5426 11.9998C12.5426 8.42979 14.7426 5.37979 17.8526 4.12979C18.7426 3.76979 18.6026 2.43979 17.6626 2.22979C16.5626 1.98979 15.3926 1.92979 14.1826 2.08979C9.67262 2.68979 6.06262 6.39979 5.59262 10.9198C4.97262 16.9298 9.66262 21.9998 15.5426 21.9998C16.2726 21.9998 16.9726 21.9198 17.6626 21.7698C18.6126 21.5598 18.7626 20.2398 17.8626 19.8698C14.6426 18.5798 12.5326 15.4598 12.5426 11.9998Z"/></svg>

<svg xmlns="http://www.w3.org/2000/svg" width="24" height="24" viewBox="0 0 24 24" fill='currentColor'><path d="M12.543 12c0-3.57 2.2-6.62 5.31-7.87.89-.36.75-1.69-.19-1.9-1.1-.24-2.27-.3-3.48-.14-4.51.6-8.12 4.31-8.59 8.83-.62 6.01 4.07 11.08 9.95 11.08.73 0 1.43-.08 2.12-.23.95-.21 1.1-1.53.2-1.9a8.46 8.46 0 0 1-5.32-7.87"/></svg>
